!!!COM: Bach, Johann Sebastian
!!!CDT: 1685/3//-1750/7/28/
!!!OTL@@DE: Wenn wir in hoechsten Noeten sein
!!!AGN: 4-Part Chorale; Chorale Prelude
!!!SCT: Erk 068
!!!SCT: BWV 431
!!!YEC: Copyright 1994, David Huron
!!!YEC: Changes/Additions Copyright 2001 by Craig Stuart Sapp
!!!license: GNU General Public License (http://www.gnu.org/copyleft/gpl.html)
!!!SMA: 371 Bach Chorales, edited by Ludwig Erk, C.F. Peters
!!!PDT: 1850, 1865
!!!ONB: Harmony and Root analysis done manually
**kern	**kern	**kern	**kern	**root	**harm	**kern
!bass	!tenor	!alto	!soprno	!	!	!
*Iorgan	*Iorgan	*Iorgan	*Iorgan	*Iorgan	*	*Iorgan
*clefF4	*clefF4	*clefG2	*clefG2	*	*	*
*M4/4	*M4/4	*M4/4	*M4/4	*M4/4	*M4/4	*M4/4
*met(C)	*met(C)	*met(C)	*met(C)	*met(C)	*met(C)	*met(C)
*MM60	*MM60	*MM60	*MM60	*MM60	*MM60	*MM60
*k[b-]	*k[b-]	*k[b-]	*k[b-]	*k[b-]	*k[b-]	*k[b-]
*F:	*F:	*F:	*F:	*F:	*F:	*F:
8F	8A	[4c	4f	4FF	I	4F 4a 4cc
8E	8G	.	.	.	.	.
=1	=1	=1	=1	=1	=1	=1
4D	4F	8c]	4f	4BB	viiob/V	4b 4D 4ff
.	.	8Bn	.	.	.	.
8E	8c	[4c	4g	8CC	Vb	8c 8E 8g
8C	8B-y	.	.	8CC	V7	8C 8e 8g 8b-
4F	8A	8c]	4a	4FF	I	4F 4a 4cc
.	8B-	8d	.	.	.	.
4C	4c	4e	8g	4CC	V	4C 4e 4g
.	.	.	8a	.	.	.
=2	=2	=2	=2	=2	=2	=2
8D	8F	8f	4b-	8BB-	IVb	8b- 8D 8ff
8E	8c	[8g	.	8CC	V7b	8c 8E 8g 8b-
4F	4c	8g]	4a	4FF	I	4F 4a 4cc
.	.	[8f	.	.	.	.
4BB-	8d	8f]	4.g	8GG	ii7b	8g 8B- 8dd 8ff
.	8B-	16e	.	8GG	iib	8g 8B- 8dd
.	.	16d	.	.	.	.
4C	8G	4e	.	4CC	V	4C 4e 4g
.	16c	.	8g	.	.	.
.	16B-	.	.	.	.	.
=3	=3	=3	=3	=3	=3	=3
2FF;	2A;	2c;	2f;	2FF;	I;	2F; 2a; 2cc;
4r	4r	4r	4r	4r	r	4r
8F	4c	[4f	4a	4FF	I	4F 4a 4cc
8E-	.	.	.	.	.	.
=4	=4	=4	=4	=4	=4	=4
8D	8d	8f]	4b-	8BB-	IVb	8b- 8D 8ff
8En	8c	[8g	.	8CC	V7b	8c 8E 8g 8b-
4F	4c	8g]	4a	4FF	I	4F 4a 4cc
.	.	[8f	.	.	.	.
8BBn	8d	8f]	4g	8GG	V7b/V	8g 8B 8dd 8ff
8C	4c	8e	.	8CC	V	8C 8e 8g
4D	.	4d	4f	4BB	viio/V	4B 4dd 4ff
.	8Bn	.	.	.	.	.
=5	=5	=5	=5	=5	=5	=5
8C	4c	4G	4e	4CC	V	4C 4e 4g
8BB-y	.	.	.	.	.	.
8AA	4F	4c	4f	4FF	Ib	4f 4A 4cc
8FF	.	.	.	.	.	.
4C;	4E;	4c;	4g;	4CC;	V;	4C; 4e; 4g;
4AA	4A	8e	4cc	4AA	iii	4A 4cc 4ee
.	.	8f#	.	.	.	.
=6	=6	=6	=6	=6	=6	=6
4GG	8d	8g	4b-	8GG	ii	8G 8b- 8dd
.	8c#	8e	.	8CC#	viioD7/vi	8C# 8e 8g 8b-
8D	4d	8fn	4a	4DD	vi	4D 4f 4a
8Cn	.	8e	.	.	.	.
4BBn	4G	[4d	8g	4GG	Vb/V	4g 4B 4dd
.	.	.	8f	.	.	.
4C	4G	8d]	4e	4CC	V	4C 4e 4g
.	.	[8c	.	.	.	.
=7	=7	=7	=7	=7	=7	=7
4FF	4A	8c]	4f	4FF	I	4F 4a 4cc
.	.	16d	.	.	.	.
.	.	16c	.	.	.	.
4GG	8G	4Bn	4d	4GG	V/V	4G 4b 4dd
.	8F	.	.	.	.	.
4C;	4E;	4G;	4c;	4CC;	V;	4C; 4e; 4g;
4FF	4c	8f	4a	4FF	I	4F 4a 4cc
.	.	8e-	.	.	.	.
=8	=8	=8	=8	=8	=8	=8
4GG	4B-	8d	4b-	4GG	ii	4G 4b- 4dd
.	.	8en	.	.	.	.
8AA	[4c	[4f	4a	4FF	Ib	4f 4A 4cc
8BB-	.	.	.	.	.	.
4C	8.c]	8f]	4g	4CC	V	4C 4e 4g
.	.	[8e	.	.	.	.
.	16B-	.	.	.	.	.
4D	8A	8e]	4f	8DD	vi	8D 8f 8a
.	8B-	16d	.	8BB-	IVb	8b- 8D 8ff
.	.	16e	.	.	.	.
=9	=9	=9	=9	=9	=9	=9
8AA	4c	4.f	4a	4FF	Ib	4f 4A 4cc
8BB-	.	.	.	.	.	.
4C	8.c	.	4g	4CC	V	4C 4e 4g
.	.	8e	.	.	.	.
.	16B-	.	.	.	.	.
4FF;	4A;	4c;	4f;	4FF;	I;	4F; 4a; 4cc;
==	==	==	==	==	==	==
*-	*-	*-	*-	*-	*-	*-
